src/assets/img/icons/duotone-icons/General/Save.svg

<?xml version="1.0" encoding="UTF-8"?>
<svg width="24px" height="24px" viewBox="0 0 24 24" version="1.1" xmlns="http://www.w3.org/2000/svg" xmlns:xlink="http://www.w3.org/1999/xlink">
    <!-- Generator: Sketch 52.2 (67145) - http://www.bohemiancoding.com/sketch -->
    <title>Stockholm-icons / General / Save</title>
    <desc>Created with Sketch.</desc>
    <g id="Stockholm-icons-/-General-/-Save" stroke="none" stroke-width="1" fill="none" fill-rule="evenodd">
        <polygon id="Shape" points="0 0 24 0 24 24 0 24"></polygon>
        <path d="M17,4 L6,4 C4.79111111,4 4,4.7 4,6 L4,18 C4,19.3 4.79111111,20 6,20 L18,20 C19.2,20 20,19.3 20,18 L20,7.20710678 C20,7.07449854 19.9473216,6.94732158 19.8535534,6.85355339 L17,4 Z M17,11 L7,11 L7,4 L17,4 L17,11 Z" id="Shape" fill="#335EEA"></path>
        <rect id="Rectangle-16" fill="#335EEA" opacity="0.3" x="12" y="4" width="3" height="5" rx="0.5"></rect>
    </g>
</svg>

<svg width="24" height="24" viewBox="0 0 24 24" xmlns="http://www.w3.org/2000/svg"><g fill="none" fill-rule="evenodd"><path d="M0 0h24v24H0z"/><path d="M17 4H6c-1.209 0-2 .7-2 2v12c0 1.3.791 2 2 2h12c1.2 0 2-.7 2-2V7.207a.5.5 0 00-.146-.353L17 4zm0 7H7V4h10v7z" fill="#335EEA"/><rect fill="#335EEA" opacity=".3" x="12" y="4" width="3" height="5" rx=".5"/></g></svg>
